X:1
T:Roll the Union On
M:4/4
L:1/16
K:G
 D G3 A| B8- B3 D G3 A| B8- B3 D G3 A| B4- B3 G c4 B4| A8- A3 D F3 G|\
 A8- A3 D F3 G| A8- A3 D F3 A| d4- d3 d B4 A4| G12 G3 A| B3 B B3 B B3 A G3 A|\
 B3 B B3 A G4 F3 G| A3 A A3 G F4 G3 A| B3 B B3 A G4 G3 A| B3 B B3 B B3 A G3 A|\
 B3 B B3 A G4 F3 G| A4- A3 c B4 A4| G8 z8|
